X: 14407
T: Galway Belle, The
R: polka
M: 2/4
K: Edorian
|:E>F GA|Be B>A|AF dF|EF/E/ DF|
E>F GA|Be B>A|AF dF|1 E2 E>D:|2 E2 Ed||
ef/e/ Bd|ef/e/ BA|AF dF|E[FA] Dd|
ef/e/ Bd|ef/e/ BA|AF dF|E2 Ed|
ef/e/ Bd|ef/e/ BA|AF dF|E[FA] DF|
E>F GA|Be B>A|AF dF|E2 E>D|

